X: 3395
T: Bernie Cunnion's Favourite
R: jig
M: 6/8
K: Gmajor
BAG GED|~E3 GED|BAG GED|EFG A2 A|
BAG GED|~E3 GED|d2 B AGA|BGE ~G3:|
|:~B3 dBd|ege dBA|G2 B dBA|AGE ~E3|
~B3 dBd|ege dBA|B2 A GED|EGF ~G3:|

